X:80
T:Morris simple chords 30
M:3/4
L:1/8
K:G
g[gC,E,G,] fe ed | e[eC,E,G,] dc cB | c[dG,B,D] Bg dB | G[FA,CE] AA A2 | g[gC,E,G,] fe ed |
e[eC,E,G,] dc cB | c[dG,B,D] BG DA | F[GG,B,D] AG G2 | g[gC,E,G,] fe ed |
e[eC,E,G,] dc cB | c[dG,B,D] Bg dB | G[FA,CE] AA A2 | g[gC,E,G,] fe ed |
e[eC,E,G,] dc cB | c[dG,B,D] BG DA | F[GG,B,D] AG G2 | B/c/[dG,B,D] ed dB |
d[BG,B,D] GG G2 | A/B/[cC,E,G,] Ac BG | B[FA,CE] AA A2 | B/c/[dG,B,D] ed dB |
d[BG,B,D] GG GB | d[eC,E,G,] fg dB | d[BG,B,D] GG G2 | B/c/[dG,B,D] ed dB |
d[BG,B,D] GG G2 | A/B/[cC,E,G,] Ac BG | B[FA,CE] AA A2 | B/c/[dG,B,D] ed dB |
d[BG,B,D] GG GB | d[eC,E,G,] fg dB | d[BG,B,D] GG G2 | B/c/[dG,B,D] ed dB |
d[BG,B,D] GG G2 | A/B/[cC,E,G,] Ac BG | B[FA,CE] AA A2 | B/c/[dG,B,D] ed dB |
d[BG,B,D] GG GB | d[eC,E,G,] fg dB | d[BG,B,D] GG G2 | g[gC,E,G,] fe ed |
e[eC,E,G,] dc cB | c[dG,B,D] Bg dB | G[FA,CE] AA A2 | g[gC,E,G,] fe ed |
e[eC,E,G,] dc cB | c[dG,B,D] BG DA | F[GG,B,D] AG G2 | B/c/[dG,B,D] ed dB |
d[BG,B,D] GG G2 | A/B/[c2C,,2][A2C,2E,2G,2][c2D,,2] |[D,2F,2A,2C2][B2G,,2][G2F,,2] |[B2E,,2][E,2G,2B,2][F2A,,2] |
[A2A,2C2E2][A2A,,2][A,2^C2E2G2] |[A2D,,2][D,2F,2A,2C2]C,,2 |[BB,,] c[d2G,,2][eG,B,D] | G,,d [G,B,D]d2B2 |
d2[B2G,,2][GG,B,D] | G,,G [G,B,D]G2B2 |d2[e2C,,2][fC,E,G,] | C,,g [C,E,G,]d2B2 |
d2[B2G,,2][GG,B,D] | G,,G [G,B,D]G4 |[B/G,,/]c/ [dG,,]e [dG,B,D][dG,,] | B[dG,B,D] [BG,,]G [GG,B,D][G2G,,2] |
[A/G,/B,/D/]B/ [c2C,,2] [A2C,2E,2G,2] | [c2D,,2] [D,2F,2A,2C2] [B2G,,2] | [G2F,,2] [B2E,,2] [E,2G,2B,2] | [F2A,,2] [A2A,2C2E2] [A2A,,2] |
[A,2^C2E2G2] [A2D,,2] [D,2F,2A,2=C2] | C,,2 [BB,,]c [d2G,,2] | [eG,B,D]G,, d[G,B,D] d2 | B2 d2 [B2G,,2] |
[GG,B,D]G,, G[G,B,D] G2 | B2 d2 [e2C,,2] | [fC,E,G,]C,, g[C,E,G,] d2 | B2 d2 [B2G,,2] |
[GG,B,D]G,, G[G,B,D] G4 | [B/G,,/]c/[dG,,] e[dG,B,D] | [dG,,]B [dG,B,D][BG,,] G[GG,B,D] | [G2G,,2] [A/G,/B,/D/]B/[c2C,,2][A2C,2E,2G,2] |
[c2D,,2][D,2F,2A,2C2][B2G,,2] |[G2F,,2][B2E,,2][E,2G,2B,2] |[F2A,,2][A2A,2C2E2][A2A,,2] |[A,2^C2E2G2][A2D,,2][D,2F,2A,2=C2] |
C,,2[BB,,] c[d2G,,2] |[eG,B,D] G,,d [G,B,D]d2 |B2d2[B2G,,2] |[GG,B,D] G,,G [G,B,D]G2 |
B2d2[e2C,,2] |[fC,E,G,] C,,g [C,E,G,]d2 |B2d2[B2G,,2] |[GG,B,D] G,,G [G,B,D]G4 |
[gG,,] [gC,,]f | [eC,E,G,][eC,,] d[eC,E,G,] [eC,,]d | [cC,E,G,][cC,,] B[cC,E,G,] [dG,,]B | [gG,B,D][dG,,] B[GG,B,D] [FA,,]A |
[AA,CE][A2D,,2][g^C,,] [g=C,,]f | [eC,E,G,][eC,,] d[eC,E,G,] [eC,,]d | [cC,E,G,][cC,,] B[cC,E,G,] [dG,,]B | [GG,B,D][DD,,] A[FD,F,A,C] [GG,,]A |
[GG,B,D][G2G,,2] |


